Newaita-dark/.DP/22/weather-fog.svg

<svg xmlns="http://www.w3.org/2000/svg" xmlns:xlink="http://www.w3.org/1999/xlink" width="22px" height="22px" viewBox="0 0 22 22" version="1.1">
<defs>
<linearGradient id="linear0" gradientUnits="userSpaceOnUse" x1="960" y1="1695.118042" x2="960" y2="815.117981" gradientTransform="matrix(0.0113713,0,0,0.0113713,0,-7.173375)">
<stop offset="0" style="stop-color:rgb(47.058824%,56.470591%,61.176473%);stop-opacity:1;"/>
<stop offset="1" style="stop-color:rgb(56.470591%,64.313728%,68.235296%);stop-opacity:1;"/>
</linearGradient>
<linearGradient id="linear1" gradientUnits="userSpaceOnUse" x1="254" y1="222.917007" x2="254" y2="95.917" >
<stop offset="0" style="stop-color:rgb(47.058824%,56.470591%,61.176473%);stop-opacity:1;"/>
<stop offset="1" style="stop-color:rgb(56.470591%,64.313728%,68.235296%);stop-opacity:1;"/>
</linearGradient>
<linearGradient id="linear2" gradientUnits="userSpaceOnUse" x1="254" y1="222.917007" x2="254" y2="95.917" >
<stop offset="0" style="stop-color:rgb(47.058824%,56.470591%,61.176473%);stop-opacity:1;"/>
<stop offset="1" style="stop-color:rgb(56.470591%,64.313728%,68.235296%);stop-opacity:1;"/>
</linearGradient>
<linearGradient id="linear3" gradientUnits="userSpaceOnUse" x1="254" y1="233.5" x2="254" y2="254.667007" gradientTransform="matrix(0.0429688,0,0,0.0429688,0.682,8.784875)">
<stop offset="0" style="stop-color:rgb(0%,0%,0%);stop-opacity:0.275;"/>
<stop offset="1" style="stop-color:rgb(0%,0%,0%);stop-opacity:0;"/>
</linearGradient>
<radialGradient id="radial0" gradientUnits="userSpaceOnUse" cx="450.908997" cy="189.578995" fx="450.908997" fy="189.578995" r="21.167" gradientTransform="matrix(0,-0.0537212,-0.09669,0,30.837125,43.267124)">
<stop offset="0" style="stop-color:rgb(0%,0%,0%);stop-opacity:0.314;"/>
<stop offset="0.222" style="stop-color:rgb(0%,0%,0%);stop-opacity:0.275;"/>
<stop offset="1" style="stop-color:rgb(0%,0%,0%);stop-opacity:0;"/>
</radialGradient>
<radialGradient id="radial1" gradientUnits="userSpaceOnUse" cx="450.908997" cy="189.578995" fx="450.908997" fy="189.578995" r="21.167" gradientTransform="matrix(0,0.0537212,0.09669,0,-9.00625,-5.630625)">
<stop offset="0" style="stop-color:rgb(0%,0%,0%);stop-opacity:0.314;"/>
<stop offset="0.222" style="stop-color:rgb(0%,0%,0%);stop-opacity:0.275;"/>
<stop offset="1" style="stop-color:rgb(0%,0%,0%);stop-opacity:0;"/>
</radialGradient>
<radialGradient id="radial2" gradientUnits="userSpaceOnUse" cx="450.908997" cy="189.578995" fx="450.908997" fy="189.578995" r="21.167" gradientTransform="matrix(0,-0.0537212,0.09669,0,-9.00625,43.267124)">
<stop offset="0" style="stop-color:rgb(0%,0%,0%);stop-opacity:0.314;"/>
<stop offset="0.222" style="stop-color:rgb(0%,0%,0%);stop-opacity:0.275;"/>
<stop offset="1" style="stop-color:rgb(0%,0%,0%);stop-opacity:0;"/>
</radialGradient>
<radialGradient id="radial3" gradientUnits="userSpaceOnUse" cx="450.908997" cy="189.578995" fx="450.908997" fy="189.578995" r="21.167" gradientTransform="matrix(0,0.0537212,-0.09669,0,30.837125,-5.630625)">
<stop offset="0" style="stop-color:rgb(0%,0%,0%);stop-opacity:0.314;"/>
<stop offset="0.222" style="stop-color:rgb(0%,0%,0%);stop-opacity:0.275;"/>
<stop offset="1" style="stop-color:rgb(0%,0%,0%);stop-opacity:0;"/>
</radialGradient>
<linearGradient id="linear4" gradientUnits="userSpaceOnUse" x1="254" y1="222.917007" x2="254" y2="95.917" >
<stop offset="0" style="stop-color:rgb(47.058824%,56.470591%,61.176473%);stop-opacity:1;"/>
<stop offset="1" style="stop-color:rgb(56.470591%,64.313728%,68.235296%);stop-opacity:1;"/>
</linearGradient>
</defs>
<g id="surface1">
<path style=" stroke:none;fill-rule:nonzero;fill:url(#linear0);" d="M 15.007812 2.09375 C 13.078125 2.089844 11.316406 3.203125 10.488281 4.945312 C 8.691406 4.457031 6.816406 5.417969 6.148438 7.160156 C 5.6875 6.820312 5.125 6.644531 4.550781 6.644531 C 3.824219 6.636719 3.132812 6.929688 2.621094 7.4375 C 2.105469 7.949219 1.820312 8.648438 1.820312 9.371094 C 1.820312 10.152344 2.152344 10.898438 2.738281 11.417969 C 3.324219 11.933594 4.101562 12.175781 4.875 12.078125 C 4.921875 12.09375 4.957031 12.101562 5 12.101562 L 15.007812 12.101562 C 16.339844 12.101562 17.613281 11.574219 18.550781 10.640625 C 19.484375 9.699219 20.011719 8.421875 20.011719 7.09375 C 20.019531 5.769531 19.492188 4.496094 18.550781 3.554688 C 17.613281 2.617188 16.332031 2.089844 15.007812 2.09375 Z M 15.007812 2.09375 "/>
<path style=" stroke:none;fill-rule:nonzero;fill:rgb(100%,100%,100%);fill-opacity:0.392;" d="M 15.007812 2.09375 C 13.078125 2.089844 11.316406 3.203125 10.488281 4.945312 C 8.691406 4.457031 6.816406 5.417969 6.148438 7.160156 C 5.6875 6.820312 5.125 6.644531 4.550781 6.644531 C 3.824219 6.636719 3.132812 6.929688 2.621094 7.4375 C 2.105469 7.949219 1.820312 8.648438 1.820312 9.371094 L 1.820312 9.484375 C 1.878906 8.019531 3.082031 6.863281 4.550781 6.871094 C 5.125 6.871094 5.683594 7.050781 6.148438 7.386719 C 6.816406 5.644531 8.691406 4.6875 10.488281 5.171875 C 11.316406 3.425781 13.078125 2.316406 15.007812 2.320312 C 17.730469 2.316406 19.960938 4.492188 20.007812 7.214844 C 20.011719 7.175781 20.011719 7.136719 20.011719 7.09375 C 20.019531 5.769531 19.492188 4.496094 18.550781 3.554688 C 17.613281 2.617188 16.339844 2.089844 15.007812 2.09375 Z M 15.007812 2.09375 "/>
<path style=" stroke:none;fill-rule:nonzero;fill:rgb(0%,0%,0%);fill-opacity:0.235;" d="M 20.007812 6.992188 C 19.960938 9.714844 17.730469 11.898438 15.007812 11.890625 L 5 11.890625 C 4.957031 11.890625 4.921875 11.886719 4.875 11.875 C 4.769531 11.886719 4.65625 11.890625 4.550781 11.890625 C 3.082031 11.898438 1.875 10.738281 1.820312 9.269531 L 1.820312 9.371094 C 1.820312 10.152344 2.152344 10.898438 2.738281 11.417969 C 3.324219 11.933594 4.101562 12.175781 4.875 12.078125 C 4.914062 12.09375 4.957031 12.101562 5 12.101562 L 15.007812 12.101562 C 16.332031 12.101562 17.613281 11.574219 18.546875 10.640625 C 19.484375 9.699219 20.011719 8.421875 20.011719 7.09375 C 20.011719 7.0625 20.011719 7.03125 20.007812 6.992188 Z M 20.007812 6.992188 "/>
<path style="fill:none;stroke-width:0.09375;stroke-linecap:round;stroke-linejoin:miter;stroke:rgb(12.941177%,12.941177%,12.941177%);stroke-opacity:1;stroke-miterlimit:4;" d="M 10.914773 1.522727 C 9.511364 1.519886 8.230114 2.329545 7.627841 3.596591 C 6.321023 3.241477 4.957386 3.940341 4.471591 5.207386 C 4.136364 4.960227 3.727273 4.832386 3.309659 4.832386 C 2.78125 4.826705 2.278409 5.039773 1.90625 5.409091 C 1.53125 5.78125 1.323864 6.289773 1.323864 6.815341 C 1.323864 7.383523 1.565341 7.926136 1.991477 8.303977 C 2.417614 8.678977 2.982955 8.855114 3.545455 8.784091 C 3.579545 8.795455 3.605114 8.801136 3.636364 8.801136 L 10.914773 8.801136 C 11.883523 8.801136 12.809659 8.417614 13.491477 7.738636 C 14.170455 7.053977 14.553977 6.125 14.553977 5.159091 C 14.559659 4.196023 14.176136 3.269886 13.491477 2.585227 C 12.809659 1.903409 11.877841 1.519886 10.914773 1.522727 Z M 10.914773 1.522727 " transform="matrix(1.375,0,0,1.375,0,0)"/>
<path style="fill-rule:nonzero;fill:url(#linear1);stroke-width:3;stroke-linecap:square;stroke-linejoin:round;stroke:rgb(12.941177%,12.941177%,12.941177%);stroke-opacity:1;stroke-miterlimit:4;" d="M 68.727273 95.960007 L 439.272727 95.960007 C 445.090909 95.960007 449.909091 100.59637 449.909091 106.505461 C 449.909091 112.323643 445.090909 117.050916 439.272727 117.050916 L 68.727273 117.050916 C 63 117.050916 58.272727 112.323643 58.272727 106.505461 C 58.272727 100.59637 63 95.960007 68.727273 95.960007 Z M 68.727273 95.960007 " transform="matrix(0.0429688,0,0,0.0429688,0,9.24)"/>
<path style="fill-rule:nonzero;fill:url(#linear2);stroke-width:3;stroke-linecap:square;stroke-linejoin:round;stroke:rgb(12.941177%,12.941177%,12.941177%);stroke-opacity:1;stroke-miterlimit:4;" d="M 132.272727 148.869098 L 375.727273 148.869098 C 381.636364 148.869098 386.363636 153.323643 386.363636 158.869098 L 386.363636 159.960007 C 386.363636 165.59637 381.636364 169.960007 375.727273 169.960007 L 132.272727 169.960007 C 126.545455 169.960007 121.727273 165.59637 121.727273 159.960007 L 121.727273 158.869098 C 121.727273 153.323643 126.545455 148.869098 132.272727 148.869098 Z M 132.272727 148.869098 " transform="matrix(0.0429688,0,0,0.0429688,0,9.24)"/>
<path style=" stroke:none;fill-rule:nonzero;fill:url(#linear3);" d="M 9.09375 18.820312 L 12.734375 18.820312 L 12.734375 19.726562 L 9.09375 19.726562 Z M 9.09375 18.820312 "/>
<path style=" stroke:none;fill-rule:nonzero;fill:url(#radial0);" d="M 12.734375 18.820312 L 14.554688 18.820312 L 14.554688 17.90625 L 12.734375 17.90625 Z M 12.734375 18.820312 "/>
<path style=" stroke:none;fill-rule:nonzero;fill:url(#radial1);" d="M 9.09375 18.820312 L 7.277344 18.820312 L 7.277344 19.726562 L 9.09375 19.726562 Z M 9.09375 18.820312 "/>
<path style=" stroke:none;fill-rule:nonzero;fill:url(#radial2);" d="M 9.09375 18.820312 L 7.277344 18.820312 L 7.277344 17.90625 L 9.09375 17.90625 Z M 9.09375 18.820312 "/>
<path style=" stroke:none;fill-rule:nonzero;fill:url(#radial3);" d="M 12.734375 18.820312 L 14.554688 18.820312 L 14.554688 19.726562 L 12.734375 19.726562 Z M 12.734375 18.820312 "/>
<path style="fill-rule:nonzero;fill:url(#linear4);stroke-width:3;stroke-linecap:square;stroke-linejoin:round;stroke:rgb(12.941177%,12.941177%,12.941177%);stroke-opacity:1;stroke-miterlimit:4;" d="M 190.545455 201.687279 L 317.454545 201.687279 C 323.363636 201.687279 328.090909 205.960007 328.090909 211.050916 L 328.090909 213.59637 C 328.090909 218.687279 323.363636 222.960007 317.454545 222.960007 L 190.545455 222.960007 C 184.636364 222.960007 179.909091 218.687279 179.909091 213.59637 L 179.909091 211.050916 C 179.909091 205.960007 184.636364 201.687279 190.545455 201.687279 Z M 190.545455 201.687279 " transform="matrix(0.0429688,0,0,0.0429688,0,9.24)"/>
</g>
</svg>

<svg xmlns="http://www.w3.org/2000/svg" width="22pt" height="22pt" viewBox="0 0 22 22"><defs><linearGradient id="a" gradientUnits="userSpaceOnUse" x1="960" y1="1695.118" x2="960" y2="815.118" gradientTransform="matrix(.01137 0 0 .01137 0 -7.173)"><stop offset="0" stop-color="#78909c"/><stop offset="1" stop-color="#90a4ae"/></linearGradient><linearGradient id="b" gradientUnits="userSpaceOnUse" x1="254" y1="222.917" x2="254" y2="95.917"><stop offset="0" stop-color="#78909c"/><stop offset="1" stop-color="#90a4ae"/></linearGradient><linearGradient id="c" gradientUnits="userSpaceOnUse" x1="254" y1="222.917" x2="254" y2="95.917"><stop offset="0" stop-color="#78909c"/><stop offset="1" stop-color="#90a4ae"/></linearGradient><linearGradient id="d" gradientUnits="userSpaceOnUse" x1="254" y1="233.5" x2="254" y2="254.667" gradientTransform="matrix(.04297 0 0 .04297 .682 8.784)"><stop offset="0" stop-opacity=".275"/><stop offset="1" stop-opacity="0"/></linearGradient><radialGradient id="e" gradientUnits="userSpaceOnUse" cx="450.909" cy="189.579" fx="450.909" fy="189.579" r="21.167" gradientTransform="matrix(0 -.05372 -.09669 0 30.837 43.267)"><stop offset="0" stop-opacity=".314"/><stop offset=".222" stop-opacity=".275"/><stop offset="1" stop-opacity="0"/></radialGradient><radialGradient id="f" gradientUnits="userSpaceOnUse" cx="450.909" cy="189.579" fx="450.909" fy="189.579" r="21.167" gradientTransform="matrix(0 .05372 .09669 0 -9.007 -5.63)"><stop offset="0" stop-opacity=".314"/><stop offset=".222" stop-opacity=".275"/><stop offset="1" stop-opacity="0"/></radialGradient><radialGradient id="g" gradientUnits="userSpaceOnUse" cx="450.909" cy="189.579" fx="450.909" fy="189.579" r="21.167" gradientTransform="matrix(0 -.05372 .09669 0 -9.007 43.267)"><stop offset="0" stop-opacity=".314"/><stop offset=".222" stop-opacity=".275"/><stop offset="1" stop-opacity="0"/></radialGradient><radialGradient id="h" gradientUnits="userSpaceOnUse" cx="450.909" cy="189.579" fx="450.909" fy="189.579" r="21.167" gradientTransform="matrix(0 .05372 -.09669 0 30.837 -5.63)"><stop offset="0" stop-opacity=".314"/><stop offset=".222" stop-opacity=".275"/><stop offset="1" stop-opacity="0"/></radialGradient><linearGradient id="i" gradientUnits="userSpaceOnUse" x1="254" y1="222.917" x2="254" y2="95.917"><stop offset="0" stop-color="#78909c"/><stop offset="1" stop-color="#90a4ae"/></linearGradient></defs><path d="M15.008 2.094c-2 0-3.719 1.164-4.52 2.851a3.716 3.716 0 0 0-.937-.12A3.63 3.63 0 0 0 6.152 7.16a2.733 2.733 0 0 0-1.605-.515A2.72 2.72 0 0 0 1.82 9.37a2.722 2.722 0 0 0 3.059 2.711.44.44 0 0 0 .125.02h10.004a4.994 4.994 0 0 0 5.004-5.004 4.991 4.991 0 0 0-5.004-5.004zm0 0" fill="url(#a)"/><path d="M15.008 2.094c-2 0-3.719 1.164-4.52 2.851a3.716 3.716 0 0 0-.937-.12A3.63 3.63 0 0 0 6.152 7.16a2.733 2.733 0 0 0-1.605-.515A2.72 2.72 0 0 0 1.82 9.37v.113a2.725 2.725 0 0 1 2.727-2.613c.601 0 1.156.191 1.605.516A3.63 3.63 0 0 1 9.551 5.05c.324 0 .636.043.937.12a4.992 4.992 0 0 1 4.52-2.85 4.99 4.99 0 0 1 5 4.89c.004-.04.004-.074.004-.113a4.991 4.991 0 0 0-5.004-5.004zm0 0" fill="#fff" fill-opacity=".392"/><path d="M20.012 6.992a5 5 0 0 1-5.004 4.903H5.004a.338.338 0 0 1-.125-.024c-.11.016-.219.024-.332.024A2.724 2.724 0 0 1 1.82 9.27v.101a2.722 2.722 0 0 0 3.059 2.711.44.44 0 0 0 .125.02h10.004a4.994 4.994 0 0 0 5.004-5.004v-.106zm0 0" fill-opacity=".235"/><path d="M15.008 2.094c-2 0-3.719 1.164-4.52 2.851a3.716 3.716 0 0 0-.937-.12A3.63 3.63 0 0 0 6.152 7.16a2.733 2.733 0 0 0-1.605-.515A2.72 2.72 0 0 0 1.82 9.37a2.722 2.722 0 0 0 3.059 2.711.44.44 0 0 0 .125.02h10.004a4.994 4.994 0 0 0 5.004-5.004 4.991 4.991 0 0 0-5.004-5.004zm0 0" fill="none" stroke-width=".12891" stroke-linecap="round" stroke="#212121"/><path d="M68.812 95.88H439.23c5.817 0 10.544 4.817 10.544 10.635 0 5.817-4.727 10.544-10.544 10.544H68.81c-5.908 0-10.635-4.727-10.635-10.544 0-5.818 4.727-10.636 10.636-10.636zm0 0" transform="matrix(.04297 0 0 .04297 0 9.24)" fill="url(#b)" stroke-width="3" stroke-linecap="square" stroke-linejoin="round" stroke="#212121"/><path d="M132.26 148.874h243.431c5.818 0 10.636 4.454 10.636 9.908v1.273c0 5.454-4.818 9.908-10.636 9.908h-243.43c-5.819 0-10.545-4.454-10.545-9.908v-1.273c0-5.454 4.726-9.908 10.544-9.908zm0 0" transform="matrix(.04297 0 0 .04297 0 9.24)" fill="url(#c)" stroke-width="3" stroke-linecap="square" stroke-linejoin="round" stroke="#212121"/><path d="M9.098 18.82h3.636v.907H9.098zm0 0" fill="url(#d)"/><path d="M12.734 18.82h1.82v-.91h-1.82zm0 0" fill="url(#e)"/><path d="M9.098 18.82h-1.82v.907h1.82zm0 0" fill="url(#f)"/><path d="M9.098 18.82h-1.82v-.91h1.82zm0 0" fill="url(#g)"/><path d="M12.734 18.82h1.82v.907h-1.82zm0 0" fill="url(#h)"/><path d="M190.527 201.778h126.988c5.818 0 10.545 4.182 10.545 9.363v2.364c0 5.18-4.727 9.453-10.545 9.453H190.527c-5.908 0-10.635-4.272-10.635-9.453v-2.364c0-5.181 4.727-9.363 10.635-9.363zm0 0" transform="matrix(.04297 0 0 .04297 0 9.24)" fill="url(#i)" stroke-width="3" stroke-linecap="square" stroke-linejoin="round" stroke="#212121"/></svg>
